static/assets/img/icons/theme/code/git-2.svg

<svg height="24" viewBox="0 0 24 24" width="24" xmlns="http://www.w3.org/2000/svg"><g fill="none" fill-rule="evenodd"><path d="m0 0h24v24h-24z" opacity="0"/><g fill="#000"><rect height="8" opacity=".3" rx="1" width="2" x="5" y="8"/><path d="m6 21c1.1045695 0 2-.8954305 2-2s-.8954305-2-2-2-2 .8954305-2 2 .8954305 2 2 2zm0 2c-2.209139 0-4-1.790861-4-4s1.790861-4 4-4 4 1.790861 4 4-1.790861 4-4 4z" fill-rule="nonzero"/><rect height="8" opacity=".3" rx="1" width="2" x="17" y="8"/><path d="m18 21c1.1045695 0 2-.8954305 2-2s-.8954305-2-2-2-2 .8954305-2 2 .8954305 2 2 2zm0 2c-2.209139 0-4-1.790861-4-4s1.790861-4 4-4 4 1.790861 4 4-1.790861 4-4 4z" fill-rule="nonzero"/><path d="m6 7c1.1045695 0 2-.8954305 2-2s-.8954305-2-2-2-2 .8954305-2 2 .8954305 2 2 2zm0 2c-2.209139 0-4-1.790861-4-4s1.790861-4 4-4 4 1.790861 4 4-1.790861 4-4 4z" fill-rule="nonzero"/><path d="m18 7c1.1045695 0 2-.8954305 2-2s-.8954305-2-2-2-2 .8954305-2 2 .8954305 2 2 2zm0 2c-2.209139 0-4-1.790861-4-4s1.790861-4 4-4 4 1.790861 4 4-1.790861 4-4 4z" fill-rule="nonzero"/></g></g></svg>

<svg width="24px" height="24px" viewBox="0 0 24 24" version="1.1" xmlns="http://www.w3.org/2000/svg" xmlns:xlink="http://www.w3.org/1999/xlink">
    <title>Icon For Git#2</title>
    <g stroke="none" stroke-width="1" fill="none" fill-rule="evenodd">
        <rect opacity="0" x="0" y="0" width="24" height="24"></rect>
        <rect fill="#000000" opacity="0.3" x="5" y="8" width="2" height="8" rx="1"></rect>
        <path d="M6,21 C7.1045695,21 8,20.1045695 8,19 C8,17.8954305 7.1045695,17 6,17 C4.8954305,17 4,17.8954305 4,19 C4,20.1045695 4.8954305,21 6,21 Z M6,23 C3.790861,23 2,21.209139 2,19 C2,16.790861 3.790861,15 6,15 C8.209139,15 10,16.790861 10,19 C10,21.209139 8.209139,23 6,23 Z" fill="#000000" fill-rule="nonzero"></path>
        <rect fill="#000000" opacity="0.3" x="17" y="8" width="2" height="8" rx="1"></rect>
        <path d="M18,21 C19.1045695,21 20,20.1045695 20,19 C20,17.8954305 19.1045695,17 18,17 C16.8954305,17 16,17.8954305 16,19 C16,20.1045695 16.8954305,21 18,21 Z M18,23 C15.790861,23 14,21.209139 14,19 C14,16.790861 15.790861,15 18,15 C20.209139,15 22,16.790861 22,19 C22,21.209139 20.209139,23 18,23 Z" fill="#000000" fill-rule="nonzero"></path>
        <path d="M6,7 C7.1045695,7 8,6.1045695 8,5 C8,3.8954305 7.1045695,3 6,3 C4.8954305,3 4,3.8954305 4,5 C4,6.1045695 4.8954305,7 6,7 Z M6,9 C3.790861,9 2,7.209139 2,5 C2,2.790861 3.790861,1 6,1 C8.209139,1 10,2.790861 10,5 C10,7.209139 8.209139,9 6,9 Z" fill="#000000" fill-rule="nonzero"></path>
        <path d="M18,7 C19.1045695,7 20,6.1045695 20,5 C20,3.8954305 19.1045695,3 18,3 C16.8954305,3 16,3.8954305 16,5 C16,6.1045695 16.8954305,7 18,7 Z M18,9 C15.790861,9 14,7.209139 14,5 C14,2.790861 15.790861,1 18,1 C20.209139,1 22,2.790861 22,5 C22,7.209139 20.209139,9 18,9 Z" fill="#000000" fill-rule="nonzero"></path>
    </g>
</svg>
